!!!OTL: WOHL AUF NOCH GETRUNKEN
!!!ARE: Europa, Mitteleuropa, Deutschland
!!!SCT: B0506
!!!YEM: Copyright 1995, estate of Helmut Schaffrath.
**kern
*ICvox
*Ivox
*M3/4
*k[]
*C:
{8C
8E
=1
4G
4G
8A
8G
=2
8E
8G
4.c}
{8E
=3
8G
8F
8F
8E
8F
8G
=4
2E}
{8C
8E
=5
4G
4G
8A
8G
=6
8E
8G
4.c}
{8E
=7
8G
8F
8F
8E
8F
8G
=8
2E}
{4E
=9
8D
8B
4.B
8B
=10
8B
8A
4.A}
{8A
=11
8A
8B
4c
4F#
=12
2G}
{4E
=13
8D
8B
4.B
8B
=14
8B
8A
4.A}
{8A
=15
8A
8B
4c
4F#
=16
2G}
{4G
=17
8A
8G
4.F
8D
=18
8E
8G
4.c}
{8E
=19
8G
8F
8F
8D
8F
8G
=20
2E}
{4G
=21
8G
8e
4.e
8e
=22
8e
8d
4.d}
{8d
=23
8d
8e
4f
4B
=24
2c
8r
8G
=25
8G
8e
4c}
{8.G
16G
=26
8.c
16c
4c
8.c
16B
=27
8.A
16A
4A}
{8.G
16G
=28
8.F
16E
8.F
16E
8.F
16A
=29
2G}
{8.G
16G
=30
8.e
16e
4e
8.d
16d
=31
8.c
16c
4c}
{8e
8e
=32
8.d
16c
8.d
16c
8.d
16e
=33
2c}
{8.G
16G
=34
8.c
16c
4c
8.c
16B
=35
8.A
16A
4A}
{8.G
16G
=36
8.F
16E
8.F
16E
8.F
16A
=37
2G}
{8.G
16G
=38
8.e
16e
4e
8.d
16d
=39
8.c
16c
4c}
{8e
8e
=40
8.d
16c
8.d
16c
8.d
16e
=41
2c}
==
!!!AGN: Wander - Lied
!!!ONB: ESAC (Essen Associative Code) Database: BOEHME
!!!AMT: simple triple
!!!AIN: vox
!!!EED: Helmut Schaffrath
!!!EEV: 1.0
*-
